X:1
T:Arkansas Traveler
C:Traditional American fiddle tune, pre-1851
M:4/4
L:1/8
Q:1/4=116
K:D
|: d2 f2 e2 d2 | B4 A4 | F2 G2 A2 F2 | E4 D4 |
   d2 f2 e2 d2 | B4 A4 | F2 A2 G2 F2 | D8 :|
|: f2 e2 f2 e2 | d4 B4 | A2 B2 c2 A2 | B4 A4 |
   f2 e2 f2 e2 | d4 B4 | A2 G2 F2 G2 | D8 :|
